X:1
L:1/8
Q:1/8=232
M:4/4
K:A
|: (3(EFG) | AE cA GE dB | AE cA fe dB | AE cA GE dB | GE FG A2 :: c2 | BA GF EG Bd | cA ec ae dc | 
 BA GF EG Bd | cd BG A2 :: fe | ^df Af df Af | eB ge ag fe | ^df Af df Af | eg f^d e2 :: e2 | 
 ed BG ED B,D | CE Ac ec ae | ed cG ED B,D | CA GB A2 :|
